lib/logo_updates/nrk-logo-nrk-yr-radio-with-bg.svg

<svg width="224" height="84" viewBox="0 0 224 84" fill="none" xmlns="http://www.w3.org/2000/svg">
<rect width="224" height="84" fill="#D9E9FF"/>
<path d="M20 63V21.0038H33.7802V63H20ZM52.5283 27.6877L60.4532 63H45.3721L35.9092 21.0038H44.3676C46.3072 20.9786 48.1892 21.6624 49.6607 22.9264C51.1347 24.1373 52.1473 25.8184 52.5283 27.6877ZM62.5233 63V21.0038H76.3035V63H62.5233ZM86.7116 36.9743C85.2267 36.9888 83.7656 36.6003 82.4839 35.8504C81.2193 35.1194 80.1688 34.0689 79.438 32.8041C78.6872 31.5222 78.2986 30.0607 78.3134 28.5751C78.2964 27.0986 78.6853 25.6458 79.438 24.3755C80.1766 23.1245 81.2259 22.0853 82.4839 21.3588C83.766 20.6098 85.2269 20.2213 86.7116 20.2348C88.1877 20.2189 89.6399 20.6078 90.9108 21.3588C92.1562 22.0917 93.1943 23.13 93.9271 24.3755C94.6789 25.6462 95.0677 27.0987 95.0517 28.5751C95.0655 30.0605 94.6769 31.5218 93.9271 32.8041C93.202 34.0633 92.1627 35.113 90.9108 35.8504C89.6398 36.6029 88.1866 36.9918 86.7097 36.9743H86.7116ZM97.1807 63V21.0038H110.962V63H97.1807ZM128.408 43.9538C128.447 43.9946 128.742 44.4776 129.295 45.403C129.848 46.3283 130.567 47.5114 131.454 48.952C132.341 50.392 133.277 51.9199 134.262 53.536C135.247 55.1521 136.174 56.6803 137.043 58.1202C137.908 59.5602 138.894 61.1867 140 63H124.859C123.912 61.4621 123.055 60.0721 122.286 58.83C121.517 57.5878 120.7 56.2471 119.833 54.8077C118.965 53.3698 118.107 51.9699 117.259 50.6081C116.41 49.2464 115.681 48.0536 115.071 47.0297C114.459 46.0051 114.035 45.3149 113.799 44.9594C113.214 44.0771 112.868 43.058 112.794 42.0019C112.853 40.9883 113.179 40.0084 113.74 39.1619C113.976 38.7676 114.41 38.0675 115.041 37.062C115.672 36.0564 116.411 34.8637 117.259 33.4835C118.106 32.1034 118.965 30.6936 119.833 29.2543C120.702 27.815 121.519 26.4643 122.286 25.2025C123.056 23.9419 123.914 22.5421 124.859 21.0029H140L128.289 40.1082C127.926 40.6755 127.722 41.3292 127.697 42.0019C127.736 42.7081 127.983 43.3871 128.406 43.9538H128.408Z" fill="#0A2343"/>
<circle cx="177" cy="42" r="30" fill="white"/>
<path d="M189.716 35.5072H185.337C184.681 35.5159 184.055 35.7804 183.591 36.2442C183.127 36.7081 182.863 37.3348 182.855 37.9906V44.3402C183.641 43.992 184.48 43.7787 185.337 43.7092H190.165C190.743 43.7375 191.321 43.6493 191.864 43.4498C192.407 43.2503 192.904 42.9436 193.326 42.5479C193.721 42.1255 194.028 41.6282 194.227 41.0852C194.427 40.5423 194.515 39.9649 194.488 39.3871C194.515 38.861 194.419 38.3356 194.208 37.8529C193.997 37.3703 193.676 36.9435 193.271 36.6066C192.248 35.8423 190.992 35.454 189.716 35.5072Z" fill="#00B8F1"/>
<path d="M177 11C168.778 11 160.893 14.2661 155.08 20.0796C149.266 25.8931 146 33.7779 146 41.9995C146 50.2212 149.266 58.1061 155.079 63.9198C160.893 69.7335 168.778 72.9997 177 73C185.221 73 193.106 69.7339 198.92 63.9202C204.734 58.1064 208 50.2214 208 41.9995C208 33.7779 204.734 25.893 198.92 20.0795C193.106 14.266 185.221 11 177 11ZM174.665 47.6166C174.643 54.2392 169.895 56.3452 168.084 57.3982L164.964 53.6237L165.037 53.5879L164.964 53.5018C165.968 52.9995 169.695 51.0872 169.695 48.1577V45.9462C169.182 46.9876 166.526 48.1663 164.72 48.1963H164.521C161.951 48.2 159.473 47.2421 157.574 45.5107C156.574 44.5421 155.788 43.3751 155.266 42.0848C154.743 40.7945 154.496 39.4093 154.541 38.018V31.3402H159.385V38.018C159.385 41.9027 162.071 43.3177 164.621 43.3535C166.854 43.3226 169.654 42.3547 169.751 39.3623V31.3364H174.66L174.665 47.6166ZM195.701 51.7278C195.969 52.0076 196.304 52.2128 196.675 52.3233C197.046 52.4337 197.439 52.4457 197.816 52.3579L197.809 56.3733H194.871C194.837 56.3733 194.804 56.3791 194.774 56.3791C194.744 56.3791 194.705 56.3791 194.671 56.3733H194.562V56.3674C193.99 56.3198 193.451 56.0757 193.038 55.6764L187.321 48.6735H185.342C184.686 48.6822 184.059 48.9468 183.596 49.4109C183.132 49.8749 182.868 50.5018 182.86 51.1578V56.3733H177.895V37.99C177.897 36.0152 178.683 34.122 180.078 32.7251C181.474 31.3283 183.367 30.5417 185.342 30.5379H189.721C192.155 30.4788 194.533 31.2704 196.446 32.7764C197.411 33.5815 198.182 34.5927 198.704 35.7355C199.225 36.8784 199.484 38.1237 199.46 39.3797C199.488 40.6107 199.271 41.835 198.822 42.9814C198.372 44.1278 197.699 45.1734 196.842 46.0575C195.764 47.1267 194.427 47.8991 192.962 48.2999C192.962 48.2999 194.639 50.5897 195.701 51.7239V51.7278Z" fill="#00B8F1"/>
</svg>

<svg xmlns="http://www.w3.org/2000/svg" viewBox="0 0 224 84"><path fill="#D9E9FF" d="M0 0h224v84H0z"/><path fill="#0A2343" d="M20 63V21.004h13.78V63H20Zm32.528-35.312L60.453 63h-15.08l-9.464-41.996h8.459a7.965 7.965 0 0 1 5.293 1.922 8.31 8.31 0 0 1 2.867 4.762ZM62.523 63V21.004h13.78V63h-13.78Zm24.189-26.026a8.213 8.213 0 0 1-4.228-1.124 8.336 8.336 0 0 1-3.046-3.046 8.206 8.206 0 0 1-1.125-4.229 8.056 8.056 0 0 1 1.125-4.2 8.437 8.437 0 0 1 3.046-3.016 8.233 8.233 0 0 1 4.228-1.124 8.083 8.083 0 0 1 4.199 1.124 8.504 8.504 0 0 1 3.016 3.016 8.075 8.075 0 0 1 1.125 4.2 8.226 8.226 0 0 1-1.125 4.23 8.4 8.4 0 0 1-3.016 3.045 8.059 8.059 0 0 1-4.201 1.124h.002ZM97.18 63V21.004h13.781V63H97.181Zm31.227-19.046c.039.04.334.524.887 1.449.553.925 1.272 2.108 2.159 3.549a1143.28 1143.28 0 0 1 5.589 9.168A854.89 854.89 0 0 0 140 63h-15.141c-.947-1.538-1.804-2.928-2.573-4.17a388.795 388.795 0 0 1-2.453-4.022 355.984 355.984 0 0 0-2.574-4.2 210.645 210.645 0 0 1-2.188-3.578 62.13 62.13 0 0 0-1.272-2.07 6.127 6.127 0 0 1-1.005-2.958 5.745 5.745 0 0 1 .946-2.84c.236-.394.67-1.094 1.301-2.1.631-1.006 1.37-2.198 2.218-3.578.847-1.38 1.706-2.79 2.574-4.23.869-1.439 1.686-2.79 2.453-4.052.77-1.26 1.628-2.66 2.573-4.2H140l-11.711 19.106a3.773 3.773 0 0 0-.592 1.894c.039.706.286 1.385.709 1.952h.002Z"/><circle cx="177" cy="42" r="30" fill="#fff"/><path fill="#00B8F1" d="M189.716 35.507h-4.379a2.516 2.516 0 0 0-2.482 2.484v6.35a7.655 7.655 0 0 1 2.482-.632h4.828a4.315 4.315 0 0 0 3.161-1.161 4.318 4.318 0 0 0 1.162-3.16 3.396 3.396 0 0 0-1.217-2.781 5.554 5.554 0 0 0-3.555-1.1Z"/><path fill="#00B8F1" d="M177 11a30.998 30.998 0 0 0-31 31 31.002 31.002 0 0 0 31 31 31.001 31.001 0 0 0 0-62Zm-2.335 36.617c-.022 6.622-4.77 8.728-6.581 9.781l-3.12-3.774.073-.036-.073-.086c1.004-.503 4.731-2.415 4.731-5.344v-2.212c-.513 1.042-3.169 2.22-4.975 2.25h-.199a10.289 10.289 0 0 1-6.947-2.685 9.98 9.98 0 0 1-3.033-7.493V31.34h4.844v6.678c0 3.885 2.686 5.3 5.236 5.335 2.233-.03 5.033-.998 5.13-3.99v-8.027h4.909l.005 16.28Zm21.036 4.11a2.23 2.23 0 0 0 2.115.63l-.007 4.016h-2.938c-.034 0-.067.006-.097.006s-.069 0-.103-.006h-.109v-.006a2.49 2.49 0 0 1-1.524-.69l-5.717-7.004h-1.979a2.514 2.514 0 0 0-2.482 2.485v5.215h-4.965V37.99a7.463 7.463 0 0 1 7.447-7.452h4.379a10.46 10.46 0 0 1 6.725 2.238 8.395 8.395 0 0 1 3.014 6.604 9.297 9.297 0 0 1-2.618 6.677 8.812 8.812 0 0 1-3.88 2.243s1.677 2.29 2.739 3.424v.004Z"/></svg>
